X:1
T:Italian Folk Song
T:Italian Folk Song
T:Op. 39, No. 15
T:Peter Tchaikovsky
T:Public Domain (PianoXML typeset)
C:Peter Tchaikovsky
Z:Public Domain (PianoXML typeset)
%%score { ( 1 3 ) | ( 2 4 ) }
L:1/8
Q:1/4=110
M:3/8
K:D
V:1 treble nm="Piano" snm="Pno."
V:3 treble 
V:2 bass 
V:4 bass 
V:1
"^Vivo" z (!2!FG | A!>!B>F | AFG | E3) | z (!1!GA | B!>!d>c | B.c)A- | A3 | z (!2!FG | A!>!B>F | %10
 AFG | E3) | z (GA | B!>!c>A | d3- |!<(! d3) | z2!<)!!mf! (!2!F |"^un poco piu" B2 A) | %18
!f! (!5!A!4!G!2!E | !4!C3) | z2 (!1!E | !5!c2 B) | (!5!BAF | D3-) | D z!p! .!1!A | %25
!mf! (!3!d/.c/).e/.d/.c/.B/ | (!4!B/.A/).^G/.!1!A/.!3!B/.!2!A/ | !>!!4!c3- |!>(! c(!3!BA | %29
 !4!G({AG)}FE | BAF!>)! | D3) | z2!p! (!2!F | B2 A | !5!A!4!G!2!E | !1!C3) | z2 (!1!E | c2 B) | %38
 (!5!BAF |!<(! D3-) | D z!<)! .!1!A |!mf! (!3!d/.c/).e/.d/.c/.B/ | (!2!^A/.B/).c/.B/.!1!G/.!3!F/ | %43
 !2!E3 | z"^poco rit."!>(! (!2!^DE | G)(B,C!>)! |!p! E3- | E3 | [F,D]3) |] %49
V:2
 .!4!D,.[F,A,].[F,A,] | .A,,.[F,A,].[F,A,] | .C,.[G,A,].[G,A,] | .A,,.[G,A,].[G,A,] | %4
 .C,.[G,A,].[G,A,] | .A,,.[G,A,].[G,A,] | .D,.[F,A,].[F,A,] | .A,,.[F,A,].[F,A,] | %8
 .D,.[F,A,].[F,A,] | .A,,.[F,A,].[F,A,] | .C,.[G,A,].[G,A,] | .A,,.[G,A,].[G,A,] | %12
 .C,.[G,A,].[G,A,] | .A,,.[G,A,].[G,A,] | .D,.[F,A,].[F,A,] | .A,,.[F,A,].[F,A,] | %16
 .D,.[F,A,].[F,A,] | .A,,.[F,A,].[F,A,] | .C,.[G,A,].[G,A,] | .A,,.[G,A,].[G,A,] | %20
 .C,.[G,A,].[G,A,] | .A,,.[G,A,].[G,A,] | .D,.[F,A,].[F,A,] | .A,,.[F,A,].[F,A,] | %24
 .D,.[F,A,].[F,A,] | .A,,.[F,A,].[F,A,] | .C,.[G,A,].[G,A,] | .A,,.[G,A,].[G,A,] | %28
 .C,.[G,A,].[G,A,] | .A,,.[G,A,].[G,A,] | .D,.[F,A,].[F,A,] | .A,,.[F,A,].[F,A,] | %32
 .D,.[F,A,].[F,A,] | .A,,.[F,A,].[F,A,] | .C,.[G,A,].[G,A,] | .A,,.[G,A,].[G,A,] | %36
 .C,.[G,A,].[G,A,] | .A,,.[G,A,].[G,A,] | .D,.[F,A,].[F,A,] | .A,,.[F,A,].[F,A,] | %40
 .!4!D,.[F,A,].[F,A,] | .!4!F,.[A,D].[A,D] | .!4!G,.[B,D].[B,D] | .G,.[B,D].[B,D] | %44
 .A,,.[G,A,].[G,A,] | .A,,.[G,A,].[G,A,] | z .!2!A,,.A,, | z .A,,A,,- | A,,3 |] %49
V:3
 x3 | x3 | x3 | x3 | x3 | x3 | x3 | x3 | x3 | x3 | x3 | x3 | x3 | x3 | x3 | x3 | x3 | x3 | x3 | %19
 x3 | x3 | x3 | x3 | x3 | x3 | x3 | x3 | x3 | x3 | x3 | x3 | x3 | x3 | x3 | x3 | x3 | x3 | x3 | %38
 x3 | x3 | x3 | x3 | x3 | x3 | x3 | x3 | z .[G,C].[G,C] | z .[G,C].[G,C] | x3 |] %49
V:4
 x3 | x3 | x3 | x3 | x3 | x3 | x3 | x3 | x3 | x3 | x3 | x3 | x3 | x3 | x3 | x3 | x3 | x3 | x3 | %19
 x3 | x3 | x3 | x3 | x3 | x3 | x3 | x3 | x3 | x3 | x3 | x3 | x3 | x3 | x3 | x3 | x3 | x3 | x3 | %38
 x3 | x3 | x3 | x3 | x3 | x3 | x3 | x3 | D,,3 | D,,3 | D,,3 |] %49

